X: 33236
T: Pull Down The Blinds
R: waltz
M: 3/4
K: Dmajor
FE||D2 F2 G2|A4 AB|A2 d2 e2|f3e fg|a2 g2 f2|(3efe d2 e2|f2 d2 B2|AB AG FE|
D2 F2 G2|A4 AB|A2 d2 e2|f3e fg|a2 g2 f2|(3efe d2 B2|A2f2e2|d3A||
de|f2 df df|e2 ce ce|d2 c2 B2|A2 F2 A2|B3A Bd|c3B cd|ed fe dB|A3B de|
f2 df df|e2 ce ce|d2 c2 B2|A2 F2 A2|B3A Bd|c3d cB|A2 f2 e2|d3A||

